X: 21831
T: "I'LL BREAK YOUR HEAD FOR YOU" -- Reel
R: reel
B: K\"ohler's Violin Repository, v.2, 1885 p.183 #1
F: http://www.archive.org/details/klersviolinrepos02rugg
Z: 2012 John Chambers <jc:trillian.mit.edu>
N: The slurs (ties?) on the final Gs don't make much sense.
M: C|
L: 1/8
K: Gm
ue | (d3d) {e}d2cB | {D}B2BB {E}c2cc | (d3e) {e}d2cB | AG^FA G/G/G (G :|
vB<B (fg) (fd)dc | B<B (fB) d<d ~"^#"d2 | B<B (fg) (fd)db | gffB G/G/G G2 |
B/B/B (fB) d/d/d (dc) | B/B/B (fB) d/d/d ~d2 | B/B/B (fB) d/d/d (db) | gBfB G/G/G "^D.C.""_Fine."(G |]

%%sep 2 1 500

